!!!COM: Schiørring, Niels
!!!CDT: 1743-1798
!!!OPR@@DA: Choral-Bog
!!!ONM: 102
!!!OTL@@DA: Vreden din afvend, Herre Gud!
**kern	**fb	**kern	**kern	**kern	**kern	**kern	**kern	**kern
*part6	*part6	*part6	*part5	*part5	*part4	*part3	*part2	*part1
*staff8	*	*staff7	*staff6	*staff5	*staff4	*staff3	*staff2	*staff1
*clefF4	*	*clefC1	*clefF4	*clefC1	*clefF4	*clefC4	*clefC3	*clefC1
*	*	*	*	*	*	*Trd0c0	*	*
*k[b-e-]	*	*k[b-e-]	*k[b-e-]	*k[b-e-]	*k[b-e-]	*k[b-e-]	*k[b-e-]	*k[b-e-]
*B-:	*	*B-:	*B-:	*B-:	*B-:	*B-:	*B-:	*B-:
*M4/4	*	*M4/4	*M4/4	*M4/4	*M4/4	*M4/4	*M4/4	*M4/4
*met(c)	*	*met(c)	*met(c)	*met(c)	*met(c)	*met(c)	*met(c)	*met(c)
*MM180	*	*MM180	*MM180	*MM180	*MM180	*MM180	*MM180	*MM180
*	*	*	*^	*^	*	*	*	*
2G	.	2g	2B-	2G	2g	2d	2G	2b-	2d	2g
=1	=1	=1	=1	=1	=1	=1	=1	=1	=1	=1
2E-	.	2g	1B-	2E-	2g	2e-	2E-	2b-	2e-	2g
2D	6	2b-	.	2D	2b-	2f	2D	2b-	2f	2b-
=2	=2	=2	=2	=2	=2	=2	=2	=2	=2	=2
2C	6	2a	2c	2C	2a	2e-	2C	2cc	2e-	2a
2D	6	2f	2B-	2D	2f	2d	2D	2b-	2d	2f
=3	=3	=3	=3	=3	=3	=3	=3	=3	=3	=3
2BB-	6	2g	2.G	2BB-	2g	2d	2BB-	2dd	(4d	2g
.	.	.	.	.	.	.	.	.	2g)	.
2AA	7	2a	.	2AA	2a	2c	2AA	2cc	.	2a
=4	=4	=4	=4	=4	=4	=4	=4	=4	=4	=4
2GG	5	2b-	2G	2GG	2b-	4d	2GG	(4dd	2g	2b-
*	*	*	*	*	*	*^	*	*	*	*
2AA	6	2a	[2Fni	2AA	2a	2fni	2c\	2AA	2cc	[2fni	2a
=5	=5	=5	=5	=5	=5	=5	=5	=5	=5	=5	=5
2BB-	6 5	1g	2F]	2BB-	1g	2d	1r	(2BB-	(2dd	(2f]	1g
2C	n	.	2En	2C	.	2c	.	2C)	4cc	2en)	.
.	.	.	.	.	.	.	.	.	4b-)	.	.
=6	=6	=6	=6	=6	=6	=6	=6	=6	=6	=6	=6
*	*	*	*	*	*	*	*	*^	*	*	*
2FF	.	2f	2F	2FF	2f	2c	2A\	2F	2FF	2a	2f	2f
*	*	*	*	*	*	*v	*v	*	*	*	*	*
*	*	*	*	*	*	*	*v	*v	*	*	*
4F	.	2a	4ryy@	4F	2c	2f	(4F	2cc	2f	2a
4E-	.	.	4ryy@	4E-Xi	.	.	4E-)	.	.	.
=7	=7	=7	=7	=7	=7	=7	=7	=7	=7	=7
2D	6	2b-	2B-	2D	2b-	2f	2D	2b-	2f	2b-
2C	6	2cc	2A	2C	2cc	2e-	2C	2a	2e-	2cc
=8	=8	=8	=8	=8	=8	=8	=8	=8	=8	=8
2BB-	.	2dd	2B-	2BB-	2dd	2f	2BB-	2f	2d	2dd
2G	nr6	2b-	2B-	2G	2b-	2en	2G	2b-	2en	2b-
=9	=9	=9	=9	=9	=9	=9	=9	=9	=9	=9
2F	.	2a	2c	2F	2a	2f	2F	2cc	2f	2a
2En	6	2g	2c	2En	2g	2g	2En	2cc	2g	2g
=10	=10	=10	=10	=10	=10	=10	=10	=10	=10	=10
2E-Xi	2	2a	2c	2E-Xi	2a	1f	2E-Xi	2cc	2f	2a
2D	6	2b-	[2B-	2D	2b-	.	2D	[2b-	2f	2b-
=11	=11	=11	=11	=11	=11	=11	=11	=11	=11	=11
2E-	6 5	1cc	2B-]	2E-	1cc	2g	(2E-	(2b-]	(2g	1cc
2F	.	.	2A	2F	.	2f	2F)	2a)	2f)	.
=12	=12	=12	=12	=12	=12	=12	=12	=12	=12	=12
*	*	*	*	*	*	*^	*	*	*	*
2BB-	.	2b-	2B-	2BB-	2b-	2f	2d\	2BB-	2b-	2d	2b-
*	*	*	*	*	*	*v	*v	*	*	*	*
2En	5	2b-	2c	2En	2b-	2g	2En	2cc	2g	2b-
=13	=13	=13	=13	=13	=13	=13	=13	=13	=13	=13
2F	.	2a	2c	2F	2a	2f	2F	2cc	2f	2a
2C#X	7 5	2b-	2ryy@	2C#X	2en	2g	2C#X	2een	2g	2b-
=14	=14	=14	=14	=14	=14	=14	=14	=14	=14	=14
2D	5	2a	2A	2D	2a	2f	2D	2a	2f	2a
2D	6	2f	2B-	2D	2f	2f	2D	2b-	2f	2f
=15	=15	=15	=15	=15	=15	=15	=15	=15	=15	=15
2E-	.	2g	2B-	2E-	2g	1e-	2E-	2b-	2e-	2g
2C	6	2a	2c	2C	2a	.	2C	2cc	2e-	2a
=16	=16	=16	=16	=16	=16	=16	=16	=16	=16	=16
2D	6	2b-	2B-	2D	2b-	2f	2D	2b-	2f	2b-
2G	.	2b-	[2B-	2G	2b-	2d	2G	[2b-	2d	2b-
=17	=17	=17	=17	=17	=17	=17	=17	=17	=17	=17
2E-	6 5	1cc	2B-]	2E-	1cc	2g	(2E-	(2b-]	(2g	1cc
2F	.	.	4A	2F	.	2f	2F)	2a)	2f)	.
.	.	.	4e-	.	.	.	.	.	.	.
=18	=18	=18	=18	=18	=18	=18	=18	=18	=18	=18
2BB-	.	2b-	1ryy	2BB-	2d	2f	2BB-	2b-	2d	2b-
*	*	*	*	*	*	*	*^	*	*	*
2BB-	6	2dd	.	2BB-	2d	2g	2B-	2BB-	2b-	2g	2dd
=19	=19	=19	=19	=19	=19	=19	=19	=19	=19	=19	=19
2FF#X	-7 5	2cc	2ryy@	2FF#X	2e-	2a	2F#X	2FF#X	2a	2e-	2cc
*	*	*	*	*	*	*^	*	*	*	*	*
2GG	.	2b-	[2G	2GG	2b-	2g	2d\	2G	2GG	[2g	2d	2b-
*	*	*	*	*	*	*	*	*v	*v	*	*	*
=20	=20	=20	=20	=20	=20	=20	=20	=20	=20	=20	=20
2C	6 5	1a	2G]	2C	1a	2e-	1r	(2C	(2g]	(2e-	1a
2D	#	.	2F#X	2D	.	2d	.	2D)	2f#X)	4d	.
.	.	.	.	.	.	.	.	.	.	4c)	.
=21	=21	=21	=21	=21	=21	=21	=21	=21	=21	=21	=21
2GG	.	2g	2G	2GG	2g	2d	2B-\	2GG	2g	2B-	2g
*	*	*	*v	*v	*	*	*	*	*	*	*
*	*	*	*	*v	*v	*v	*	*	*	*
==	==	==	==	==	==	==	==	==
*-	*-	*-	*-	*-	*-	*-	*-	*-
!!!system-decoration: {(s1,s2,s3,s4)}{(s5,s6)}{(s7,s8)}
!!!RDF**kern: i = editorial accidental
!!!AGN: chorale
!!!EED: Derek Remeš
!!!EED2: Victor Phan
!!!END: 2023/11/28
!!!ENC: Wolfgang Drescher
!!!EEV: 2023/11/28
!!!title: @{ONM}. @{OTL}